Desktop/project_createx/public/images/About/checklist.svg

<svg width="48" height="48" viewBox="0 0 48 48" fill="none" xmlns="http://www.w3.org/2000/svg">
<path d="M37.5002 14.25H24C23.4822 14.25 23.0625 14.6697 23.0625 15.1875C23.0625 15.7053 23.4822 16.125 24 16.125H37.5002C38.0179 16.125 38.4377 15.7053 38.4377 15.1875C38.4377 14.6697 38.0179 14.25 37.5002 14.25Z" fill="#7772F1"/>
<path d="M34.2214 19.0247C34.047 18.8503 33.8052 18.75 33.5586 18.75C33.312 18.75 33.0702 18.8503 32.8958 19.0247C32.7214 19.1991 32.6211 19.4409 32.6211 19.6875C32.6211 19.9341 32.7214 20.1759 32.8958 20.3503C33.0702 20.5247 33.312 20.625 33.5586 20.625C33.8052 20.625 34.047 20.5247 34.2214 20.3503C34.3958 20.1759 34.4961 19.9341 34.4961 19.6875C34.4961 19.4409 34.3958 19.1991 34.2214 19.0247Z" fill="#7772F1"/>
<path d="M24.6609 4.30594C24.4865 4.13156 24.2446 4.03125 23.998 4.03125C23.7515 4.03125 23.5096 4.13156 23.3352 4.30594C23.1609 4.48031 23.0605 4.72219 23.0605 4.96875C23.0605 5.21531 23.1609 5.45718 23.3352 5.63156C23.5096 5.80593 23.7515 5.90625 23.998 5.90625C24.2446 5.90625 24.4865 5.80593 24.6609 5.63156C24.8352 5.45718 24.9355 5.21531 24.9355 4.96875C24.9355 4.72219 24.8352 4.48031 24.6609 4.30594Z" fill="#7772F1"/>
<path d="M29.6135 18.75H24C23.4822 18.75 23.0625 19.1697 23.0625 19.6875C23.0625 20.2053 23.4822 20.625 24 20.625H29.6135C30.1312 20.625 30.551 20.2053 30.551 19.6875C30.551 19.1697 30.1312 18.75 29.6135 18.75Z" fill="#7772F1"/>
<path d="M37.5002 24.375H24C23.4822 24.375 23.0625 24.7947 23.0625 25.3125C23.0625 25.8303 23.4822 26.25 24 26.25H37.5002C38.0179 26.25 38.4377 25.8303 38.4377 25.3125C38.4377 24.7947 38.0179 24.375 37.5002 24.375Z" fill="#7772F1"/>
<path d="M34.2214 29.1497C34.047 28.9753 33.8052 28.875 33.5586 28.875C33.312 28.875 33.0702 28.9753 32.8958 29.1497C32.7214 29.3241 32.6211 29.5659 32.6211 29.8125C32.6211 30.0591 32.7214 30.3009 32.8958 30.4753C33.0702 30.6497 33.312 30.75 33.5586 30.75C33.8052 30.75 34.047 30.6497 34.2214 30.4753C34.3958 30.3009 34.4961 30.0591 34.4961 29.8125C34.4961 29.5659 34.3958 29.3241 34.2214 29.1497Z" fill="#7772F1"/>
<path d="M29.6135 28.875H24C23.4822 28.875 23.0625 29.2947 23.0625 29.8125C23.0625 30.3303 23.4822 30.75 24 30.75H29.6135C30.1312 30.75 30.551 30.3303 30.551 29.8125C30.551 29.2947 30.1312 28.875 29.6135 28.875Z" fill="#7772F1"/>
<path d="M37.5002 34.5H24C23.4822 34.5 23.0625 34.9197 23.0625 35.4375C23.0625 35.9553 23.4822 36.375 24 36.375H37.5002C38.0179 36.375 38.4377 35.9553 38.4377 35.4375C38.4377 34.9197 38.0179 34.5 37.5002 34.5Z" fill="#7772F1"/>
<path d="M34.2214 39.2747C34.047 39.1003 33.8052 39 33.5586 39C33.312 39 33.0702 39.1003 32.8958 39.2747C32.7214 39.4491 32.6211 39.6909 32.6211 39.9375C32.6211 40.1841 32.7214 40.4259 32.8958 40.6003C33.0702 40.7747 33.312 40.875 33.5586 40.875C33.8052 40.875 34.047 40.7747 34.2214 40.6003C34.3958 40.4259 34.4961 40.1841 34.4961 39.9375C34.4961 39.6909 34.3958 39.4491 34.2214 39.2747Z" fill="#7772F1"/>
<path d="M29.6135 39H24C23.4822 39 23.0625 39.4197 23.0625 39.9375C23.0625 40.4553 23.4822 40.875 24 40.875H29.6135C30.1312 40.875 30.551 40.4553 30.551 39.9375C30.551 39.4197 30.1312 39 29.6135 39Z" fill="#7772F1"/>
<path d="M39.3039 3.65634H32.1434C31.1083 2.66999 29.709 2.0625 28.1698 2.0625H27.3485C26.7207 0.819561 25.4308 0 23.9999 0C22.569 0 21.2792 0.819561 20.6512 2.0625H19.828C18.2887 2.0625 16.8896 2.66999 15.8545 3.65634H8.69605C6.17559 3.65634 4.125 5.70693 4.125 8.22739V43.4289C4.125 45.9494 6.17559 48 8.69605 48H39.3038C41.8242 48 43.8748 45.9494 43.8748 43.4289V8.22739C43.8749 5.70693 41.8243 3.65634 39.3039 3.65634ZM19.8281 3.93749H21.2893C21.711 3.93749 22.0807 3.65596 22.1929 3.24956C22.4165 2.44021 23.1596 1.875 24 1.875C24.8403 1.875 25.5834 2.44021 25.8069 3.24956C25.9191 3.65596 26.289 3.93749 26.7106 3.93749H28.1698C30.2046 3.93749 31.8795 5.5078 32.0467 7.50008H15.9512C16.1183 5.5078 17.7933 3.93749 19.8281 3.93749ZM41.9999 43.429C41.9999 44.9156 40.7905 46.1251 39.3039 46.1251H8.69605C7.20946 46.1251 6 44.9156 6 43.429V8.22739C6 6.7408 7.20946 5.53133 8.69605 5.53133H14.5411C14.2339 6.23558 14.0625 7.01202 14.0625 7.8282V8.43758C14.0625 8.95536 14.4822 9.37508 15 9.37508H32.998C33.5158 9.37508 33.9355 8.95536 33.9355 8.43758V7.8282C33.9355 7.01211 33.764 6.23558 33.4569 5.53133H39.3039C40.7905 5.53133 41.9999 6.7408 41.9999 8.22739V43.429Z" fill="#7772F1"/>
<path d="M18.0374 14.0226C17.6713 13.6565 17.0777 13.6565 16.7116 14.0225L12.7026 18.0316L11.4677 16.7965C11.1016 16.4305 10.5079 16.4305 10.1418 16.7965C9.77566 17.1626 9.77566 17.7562 10.1418 18.1224L12.0397 20.0204C12.2228 20.2035 12.4627 20.295 12.7026 20.295C12.9425 20.295 13.1825 20.2035 13.3655 20.0204L18.0374 15.3485C18.4035 14.9824 18.4035 14.3888 18.0374 14.0226Z" fill="#7772F1"/>
<path d="M15.75 34.5H11.25C10.7322 34.5 10.3125 34.9197 10.3125 35.4375V39.9375C10.3125 40.4553 10.7322 40.875 11.25 40.875H15.75C16.2678 40.875 16.6875 40.4553 16.6875 39.9375V35.4375C16.6875 34.9197 16.2678 34.5 15.75 34.5ZM14.8125 39H12.1875V36.375H14.8125V39Z" fill="#7772F1"/>
<path d="M15.75 24.375H11.25C10.7322 24.375 10.3125 24.7947 10.3125 25.3125V29.8125C10.3125 30.3303 10.7322 30.75 11.25 30.75H15.75C16.2678 30.75 16.6875 30.3303 16.6875 29.8125V25.3125C16.6875 24.7947 16.2678 24.375 15.75 24.375ZM14.8125 28.875H12.1875V26.25H14.8125V28.875Z" fill="#7772F1"/>
</svg>

<svg xmlns="http://www.w3.org/2000/svg" width="48" height="48" fill="none"><path fill="#7772F1" d="M37.5 14.25H24a.937.937 0 1 0 0 1.875h13.5a.938.938 0 0 0 0-1.875M34.221 19.025a.94.94 0 0 0-.662-.275c-.247 0-.489.1-.663.275a.94.94 0 0 0-.275.663c0 .246.1.488.275.662a.94.94 0 0 0 .663.275c.246 0 .488-.1.662-.275a.94.94 0 0 0 .275-.663c0-.246-.1-.488-.275-.662M24.66 4.306a.95.95 0 0 0-.662-.275c-.247 0-.488.1-.663.275a.95.95 0 0 0-.274.663c0 .246.1.488.274.663a.95.95 0 0 0 .663.274c.247 0 .488-.1.663-.274a.95.95 0 0 0 .274-.663c0-.247-.1-.489-.274-.663M29.614 18.75H24a.937.937 0 1 0 0 1.875h5.613a.938.938 0 0 0 0-1.875M37.5 24.375H24a.937.937 0 1 0 0 1.875h13.5a.938.938 0 0 0 0-1.875M34.221 29.15a.94.94 0 0 0-.662-.275c-.247 0-.489.1-.663.275a.94.94 0 0 0-.275.663c0 .246.1.488.275.662a.94.94 0 0 0 .663.275c.246 0 .488-.1.662-.275a.94.94 0 0 0 .275-.663c0-.246-.1-.488-.275-.662M29.614 28.875H24a.937.937 0 1 0 0 1.875h5.613a.938.938 0 0 0 0-1.875M37.5 34.5H24a.937.937 0 1 0 0 1.875h13.5a.938.938 0 0 0 0-1.875M34.221 39.275A.94.94 0 0 0 33.56 39c-.247 0-.489.1-.663.275a.94.94 0 0 0-.275.663c0 .246.1.488.275.662a.94.94 0 0 0 .663.275c.246 0 .488-.1.662-.275a.94.94 0 0 0 .275-.663c0-.246-.1-.488-.275-.662M29.614 39H24a.937.937 0 1 0 0 1.875h5.613a.938.938 0 0 0 0-1.875"/><path fill="#7772F1" d="M39.304 3.656h-7.16a5.74 5.74 0 0 0-3.974-1.594h-.822A3.76 3.76 0 0 0 24 0c-1.431 0-2.72.82-3.349 2.063h-.823c-1.54 0-2.938.607-3.973 1.593H8.696a4.576 4.576 0 0 0-4.571 4.571V43.43c0 2.52 2.05 4.571 4.571 4.571h30.608c2.52 0 4.57-2.05 4.57-4.571V8.227c0-2.52-2.05-4.57-4.57-4.57m-19.476.281h1.461a.94.94 0 0 0 .904-.687A1.88 1.88 0 0 1 24 1.875c.84 0 1.583.565 1.807 1.375a.94.94 0 0 0 .904.687h1.459c2.035 0 3.71 1.57 3.877 3.563H15.95a3.896 3.896 0 0 1 3.877-3.563M42 43.43a2.7 2.7 0 0 1-2.696 2.696H8.696A2.7 2.7 0 0 1 6 43.43V8.227a2.7 2.7 0 0 1 2.696-2.696h5.845a5.7 5.7 0 0 0-.479 2.297v.61c0 .517.42.937.938.937h17.998c.518 0 .938-.42.938-.937v-.61c0-.816-.172-1.592-.48-2.297h5.848A2.7 2.7 0 0 1 42 8.227z"/><path fill="#7772F1" d="M18.037 14.023a.94.94 0 0 0-1.325 0l-4.01 4.009-1.234-1.235a.938.938 0 0 0-1.326 1.325l1.898 1.898a.934.934 0 0 0 1.326 0l4.671-4.671a.94.94 0 0 0 0-1.326M15.75 34.5h-4.5a.937.937 0 0 0-.937.938v4.5c0 .517.42.937.937.937h4.5c.518 0 .938-.42.938-.937v-4.5a.937.937 0 0 0-.938-.938m-.937 4.5h-2.626v-2.625h2.626zM15.75 24.375h-4.5a.937.937 0 0 0-.937.938v4.5c0 .517.42.937.937.937h4.5c.518 0 .938-.42.938-.937v-4.5a.937.937 0 0 0-.938-.938m-.937 4.5h-2.626V26.25h2.626z"/></svg>
